source/img/sprite/insta.svg

<svg xmlns="http://www.w3.org/2000/svg" xmlns:xlink="http://www.w3.org/1999/xlink" viewBox="0,0,256,256" width="25px" height="25px"><g transform="translate(-26.88,-26.88) scale(1.21,1.21)"><g fill="#000000" fill-rule="nonzero" stroke="none" stroke-width="1" stroke-linecap="butt" stroke-linejoin="miter" stroke-miterlimit="10" stroke-dasharray="" stroke-dashoffset="0" font-family="none" font-weight="none" font-size="none" text-anchor="none" style="mix-blend-mode: normal"><g transform="scale(5.33333,5.33333)"><path d="M16.5,5c-6.33361,0 -11.5,5.16639 -11.5,11.5v15c0,6.33276 5.16621,11.5 11.5,11.5h15c6.33294,0 11.5,-5.16706 11.5,-11.5v-15c0,-6.33379 -5.16724,-11.5 -11.5,-11.5zM16.5,8h15c4.71124,0 8.5,3.78779 8.5,8.5v15c0,4.71106 -3.78894,8.5 -8.5,8.5h-15c-4.71221,0 -8.5,-3.78876 -8.5,-8.5v-15c0,-4.71239 3.78761,-8.5 8.5,-8.5zM34,12c-1.105,0 -2,0.895 -2,2c0,1.105 0.895,2 2,2c1.105,0 2,-0.895 2,-2c0,-1.105 -0.895,-2 -2,-2zM24,14c-5.50482,0 -10,4.49518 -10,10c0,5.50482 4.49518,10 10,10c5.50482,0 10,-4.49518 10,-10c0,-5.50482 -4.49518,-10 -10,-10zM24,17c3.88318,0 7,3.11682 7,7c0,3.88318 -3.11682,7 -7,7c-3.88318,0 -7,-3.11682 -7,-7c0,-3.88318 3.11682,-7 7,-7z"></path></g></g></g></svg>

<svg xmlns="http://www.w3.org/2000/svg" width="25" height="25" viewBox="0 0 256 256"><path stroke-miterlimit="10" d="M16.5 5C10.166 5 5 10.166 5 16.5v15C5 37.833 10.166 43 16.5 43h15C37.833 43 43 37.833 43 31.5v-15C43 10.166 37.833 5 31.5 5zm0 3h15c4.711 0 8.5 3.788 8.5 8.5v15c0 4.711-3.789 8.5-8.5 8.5h-15A8.478 8.478 0 0 1 8 31.5v-15C8 11.788 11.788 8 16.5 8zM34 12a2 2 0 1 0-.001 3.999A2 2 0 0 0 34 12zm-10 2c-5.505 0-10 4.495-10 10s4.495 10 10 10 10-4.495 10-10-4.495-10-10-10zm0 3c3.883 0 7 3.117 7 7s-3.117 7-7 7-7-3.117-7-7 3.117-7 7-7z" font-family="none" font-size="none" font-weight="none" style="mix-blend-mode:normal" text-anchor="none" transform="matrix(6.45333 0 0 6.45333 -26.88 -26.88)"/></svg>
